; generated by Slic3r 1.37.1-prusa3d-win64 on 2017-09-23 at 19:17:51

; 

; external perimeters extrusion width = 0.45mm
; perimeters extrusion width = 0.45mm
; infill extrusion width = 0.45mm
; solid infill extrusion width = 0.45mm
; top infill extrusion width = 0.40mm
; first layer extrusion width = 0.60mm

M107
M190 S70 ; set bed temperature and wait for it to be reached
M104 S205 ; set temperature
G28 ; home all axes
G29 ; bed leveling
; Filament gcode

M109 S205 ; set temperature and wait for it to be reached
G21 ; set units to millimeters
G90 ; use absolute coordinates
M82 ; use absolute distances for extrusion
G92 E0
G1 Z0.300 F12000.000
G1 E-12.00000 F7200.00000
G92 E0
G1 X80.633 Y75.623 F12000.000
G1 E12.00000 F7200.00000
G1 F1800
G1 X82.579 Y73.705 E12.06880
G1 X84.741 Y72.017 E12.13791
G1 X87.084 Y70.589 E12.20701
G1 X89.565 Y69.446 E12.27581
G1 X91.580 Y68.756 E12.32947
G1 X93.661 Y68.248 E12.38343
G1 X95.768 Y67.931 E12.43709
G1 X97.907 Y67.803 E12.49105
G1 X201.762 Y67.801 E15.10699
G1 X203.878 Y67.896 E15.16035
G1 X205.989 Y68.182 E15.21401
G1 X208.055 Y68.653 E15.26736
G1 X210.081 Y69.310 E15.32102
G1 X212.030 Y70.141 E15.37438
G1 X213.907 Y71.148 E15.42804
G1 X215.686 Y72.319 E15.48170
G1 X217.353 Y73.646 E15.53535
G1 X218.887 Y75.107 E15.58871
G1 X220.291 Y76.709 E15.64237
G1 X221.540 Y78.420 E15.69573
G1 X222.637 Y80.246 E15.74938
G1 X223.561 Y82.152 E15.80274
G1 X224.315 Y84.144 E15.85640
G1 X224.888 Y86.196 E15.91006
G1 X225.275 Y88.291 E15.96372
G1 X225.498 Y91.315 E16.04009
G1 X225.481 Y109.389 E16.49534
G1 X225.345 Y111.153 E16.53991
G1 X225.078 Y112.902 E16.58448
G1 X224.682 Y114.627 E16.62904
G1 X224.159 Y116.317 E16.67361
G1 X223.185 Y118.675 E16.73787
G1 X221.965 Y120.916 E16.80213
G1 X220.518 Y123.002 E16.86609
G1 X218.849 Y124.932 E16.93035
G1 X216.992 Y126.663 E16.99431
G1 X214.950 Y128.193 E17.05857
G1 X212.756 Y129.495 E17.12283
G1 X210.435 Y130.554 E17.18709
G1 X208.408 Y131.247 E17.24105
G1 X206.327 Y131.754 E17.29501
G1 X204.208 Y132.072 E17.34897
G1 X202.069 Y132.197 E17.40293
G1 X98.226 Y132.199 E20.01857
G1 X95.894 Y132.082 E20.07738
G1 X94.284 Y131.866 E20.11831
G1 X92.692 Y131.540 E20.15924
G1 X91.126 Y131.106 E20.20017
G1 X89.582 Y130.561 E20.24141
G1 X88.090 Y129.916 E20.28234
G1 X86.646 Y129.171 E20.32327
G1 X85.256 Y128.329 E20.36421
G1 X83.917 Y127.387 E20.40544
G1 X82.656 Y126.362 E20.44637
G1 X81.467 Y125.254 E20.48730
G1 X80.358 Y124.067 E20.52824
G1 X79.324 Y122.797 E20.56947
G1 X78.387 Y121.470 E20.61040
G1 X77.538 Y120.070 E20.65164
G1 X76.792 Y118.627 E20.69257
G1 X76.146 Y117.135 E20.73350
G1 X75.470 Y115.166 E20.78595
G1 X74.969 Y113.145 E20.83840
G1 X74.648 Y111.088 E20.89084
G1 X74.507 Y109.010 E20.94329
G1 X74.517 Y90.671 E21.40521
G1 X74.788 Y87.869 E21.47613
G1 X75.388 Y85.118 E21.54706
G1 X76.278 Y82.535 E21.61586
G1 X77.464 Y80.062 E21.68496
G1 X78.921 Y77.751 E21.75376
G1 X80.596 Y75.669 E21.82105
G1 X81.014 Y76.008 F12000.000
G1 F1800
G1 X82.986 Y74.060 E21.89086
G1 X85.111 Y72.413 E21.95858
G1 X87.411 Y71.022 E22.02630
G1 X89.858 Y69.906 E22.09402
G1 X91.808 Y69.248 E22.14587
G1 X93.821 Y68.763 E22.19803
G1 X95.869 Y68.459 E22.25018
G1 X97.924 Y68.339 E22.30203
G1 X201.762 Y68.336 E24.91752
G1 X203.830 Y68.430 E24.96968
G1 X205.894 Y68.709 E25.02213
G1 X207.924 Y69.172 E25.07458
G1 X209.904 Y69.816 E25.12703
G1 X211.819 Y70.634 E25.17948
G1 X213.653 Y71.620 E25.23193
G1 X215.391 Y72.767 E25.28438
G1 X217.020 Y74.065 E25.33683
G1 X218.525 Y75.504 E25.38928
G1 X219.895 Y77.072 E25.44173
G1 X221.120 Y78.756 E25.49418
G1 X222.188 Y80.543 E25.54663
G1 X223.093 Y82.419 E25.59909
G1 X223.825 Y84.369 E25.65154
G1 X224.380 Y86.376 E25.70399
G1 X224.752 Y88.424 E25.75644
G1 X224.963 Y91.331 E25.82985
G1 X224.946 Y109.366 E26.28412
G1 X224.813 Y111.087 E26.32758
G1 X224.552 Y112.804 E26.37135
G1 X224.165 Y114.486 E26.41481
G1 X223.655 Y116.135 E26.45828
G1 X222.702 Y118.444 E26.52121
G1 X221.500 Y120.648 E26.58444
G1 X220.068 Y122.710 E26.64767
G1 X218.429 Y124.596 E26.71060
G1 X216.597 Y126.295 E26.77353
G1 X214.584 Y127.794 E26.83676
G1 X212.430 Y129.061 E26.89970
G1 X210.142 Y130.094 E26.96293
G1 X208.180 Y130.755 E27.01508
G1 X206.167 Y131.240 E27.06723
G1 X204.119 Y131.542 E27.11938
G1 X202.052 Y131.662 E27.17153
G1 X98.226 Y131.664 E29.78673
G1 X95.956 Y131.550 E29.84397
G1 X94.376 Y131.338 E29.88414
G1 X92.814 Y131.018 E29.92431
G1 X91.266 Y130.588 E29.96477
G1 X89.762 Y130.056 E30.00494
G1 X88.299 Y129.423 E30.04511
G1 X86.872 Y128.684 E30.08558
G1 X85.510 Y127.855 E30.12575
G1 X84.207 Y126.935 E30.16591
G1 X82.963 Y125.919 E30.20638
G1 X81.799 Y124.828 E30.24655
G1 X80.706 Y123.651 E30.28702
G1 X79.704 Y122.411 E30.32719
G1 X78.789 Y121.105 E30.36735
G1 X77.960 Y119.728 E30.40782
G1 X77.234 Y118.308 E30.44799
G1 X76.606 Y116.842 E30.48816
G1 X75.961 Y114.938 E30.53881
G1 X75.481 Y112.973 E30.58976
G1 X75.174 Y110.973 E30.64072
G1 X75.042 Y108.966 E30.69137
G1 X75.052 Y90.705 E31.15134
G1 X75.318 Y87.946 E31.22116
G1 X75.911 Y85.238 E31.29098
G1 X76.790 Y82.698 E31.35870
G1 X77.952 Y80.286 E31.42612
G1 X79.384 Y78.025 E31.49354
G1 X80.977 Y76.055 E31.55735
G1 X81.394 Y76.394 F12000.000
G1 F1800
G1 X81.516 Y76.245 E31.56220
G1 X83.403 Y74.408 E31.62855
G1 X85.491 Y72.802 E31.69489
G1 X87.751 Y71.449 E31.76123
G1 X90.152 Y70.367 E31.82758
G1 X92.038 Y69.739 E31.87764
G1 X93.983 Y69.277 E31.92800
G1 X95.950 Y68.989 E31.97807
G1 X97.946 Y68.874 E32.02843
G1 X201.762 Y68.872 E34.64337
G1 X203.794 Y68.964 E34.69462
G1 X205.822 Y69.240 E34.74616
G1 X207.805 Y69.695 E34.79741
G1 X209.740 Y70.326 E34.84866
G1 X211.610 Y71.127 E34.89991
G1 X213.401 Y72.093 E34.95116
G1 X215.107 Y73.223 E35.00271
G1 X216.696 Y74.494 E35.05396
G1 X218.165 Y75.902 E35.10521
G1 X219.508 Y77.445 E35.15675
G1 X220.701 Y79.094 E35.20800
G1 X221.741 Y80.843 E35.25925
G1 X222.620 Y82.677 E35.31050
G1 X223.332 Y84.584 E35.36175
G1 X223.869 Y86.546 E35.41300
G1 X224.230 Y88.561 E35.46455
G1 X224.427 Y91.352 E35.53503
G1 X224.410 Y109.344 E35.98822
G1 X224.282 Y111.021 E36.03059
G1 X224.029 Y112.684 E36.07296
G1 X223.654 Y114.324 E36.11532
G1 X223.155 Y115.942 E36.15799
G1 X222.218 Y118.214 E36.21989
G1 X221.042 Y120.372 E36.28180
G1 X219.638 Y122.390 E36.34370
G1 X218.016 Y124.252 E36.40590
G1 X216.211 Y125.919 E36.46781
G1 X214.226 Y127.388 E36.53001
G1 X212.093 Y128.632 E36.59221
G1 X209.848 Y129.633 E36.65411
G1 X207.951 Y130.264 E36.70447
G1 X206.005 Y130.725 E36.75484
G1 X204.027 Y131.014 E36.80520
G1 X202.030 Y131.126 E36.85556
G1 X98.226 Y131.128 E39.47020
G1 X96.030 Y131.019 E39.52559
G1 X94.479 Y130.812 E39.56500
G1 X92.935 Y130.496 E39.60470
G1 X91.428 Y130.078 E39.64411
G1 X89.953 Y129.556 E39.68351
G1 X88.518 Y128.934 E39.72292
G1 X87.118 Y128.208 E39.76262
G1 X85.783 Y127.394 E39.80203
G1 X84.497 Y126.482 E39.84173
G1 X83.286 Y125.491 E39.88113
G1 X82.139 Y124.410 E39.92083
G1 X81.077 Y123.261 E39.96024
G1 X80.089 Y122.033 E39.99994
G1 X79.196 Y120.748 E40.03935
G1 X78.388 Y119.395 E40.07905
G1 X77.681 Y118.000 E40.11845
G1 X77.067 Y116.548 E40.15816
G1 X76.449 Y114.696 E40.20733
G1 X75.993 Y112.798 E40.25651
G1 X75.701 Y110.867 E40.30569
G1 X75.577 Y108.919 E40.35487
G1 X75.587 Y90.727 E40.81309
G1 X75.848 Y88.023 E40.88151
G1 X76.430 Y85.370 E40.94992
G1 X77.294 Y82.882 E41.01626
G1 X78.440 Y80.511 E41.08261
G1 X79.854 Y78.288 E41.14895
G1 X81.356 Y76.441 E41.20893
G1 X81.950 Y76.564 F12000.000
G1 F1800
G1 X83.803 Y74.770 E41.27390
G1 X85.853 Y73.204 E41.33887
G1 X88.070 Y71.886 E41.40384
G1 X90.437 Y70.832 E41.46910
G1 X92.259 Y70.233 E41.51740
G1 X94.137 Y69.793 E41.56599
G1 X96.046 Y69.517 E41.61458
G1 X97.972 Y69.409 E41.66318
G1 X201.762 Y69.408 E44.27744
G1 X203.747 Y69.498 E44.32750
G1 X205.727 Y69.768 E44.37785
G1 X207.664 Y70.212 E44.42790
G1 X209.554 Y70.828 E44.47796
G1 X211.380 Y71.611 E44.52801
G1 X213.139 Y72.561 E44.57836
G1 X214.796 Y73.659 E44.62842
G1 X216.356 Y74.908 E44.67877
G1 X217.789 Y76.285 E44.72882
G1 X219.100 Y77.793 E44.77917
G1 X220.264 Y79.404 E44.82922
G1 X221.284 Y81.123 E44.87957
G1 X222.140 Y82.917 E44.92963
G1 X222.836 Y84.791 E44.97998
G1 X223.357 Y86.708 E45.03003
G1 X223.705 Y88.677 E45.08038
G1 X223.892 Y91.365 E45.14827
G1 X223.876 Y109.310 E45.60026
G1 X223.750 Y110.956 E45.64183
G1 X223.505 Y112.576 E45.68311
G1 X223.140 Y114.174 E45.72439
G1 X222.654 Y115.751 E45.76596
G1 X221.734 Y117.986 E45.82684
G1 X220.576 Y120.107 E45.88771
G1 X219.193 Y122.089 E45.94859
G1 X217.603 Y123.909 E46.00947
G1 X215.823 Y125.545 E46.07034
G1 X213.876 Y126.977 E46.13122
G1 X211.775 Y128.193 E46.19239
G1 X209.563 Y129.168 E46.25327
G1 X207.730 Y129.770 E46.30186
G1 X205.852 Y130.209 E46.35045
G1 X203.942 Y130.484 E46.39904
G1 X202.016 Y130.591 E46.44764
G1 X98.227 Y130.592 E49.06190
G1 X96.103 Y130.488 E49.11547
G1 X94.582 Y130.287 E49.15411
G1 X93.067 Y129.977 E49.19305
G1 X91.589 Y129.567 E49.23169
G1 X90.132 Y129.051 E49.27063
G1 X88.725 Y128.439 E49.30928
G1 X87.353 Y127.726 E49.34821
G1 X86.045 Y126.925 E49.38686
G1 X84.785 Y126.028 E49.42580
G1 X83.600 Y125.054 E49.46444
G1 X82.478 Y123.991 E49.50338
G1 X81.439 Y122.862 E49.54202
G1 X80.475 Y121.654 E49.58096
G1 X79.603 Y120.391 E49.61960
G1 X78.816 Y119.061 E49.65854
G1 X78.123 Y117.679 E49.69748
G1 X77.532 Y116.263 E49.73612
G1 X76.943 Y114.475 E49.78355
G1 X76.506 Y112.632 E49.83126
G1 X76.228 Y110.758 E49.87898
G1 X76.111 Y108.867 E49.92669
G1 X76.122 Y90.760 E50.38278
G1 X76.376 Y88.111 E50.44980
G1 X76.950 Y85.501 E50.51711
G1 X77.798 Y83.065 E50.58208
G1 X78.923 Y80.744 E50.64704
G1 X80.318 Y78.561 E50.71231
G1 X81.912 Y76.610 E50.77576
G1 X82.327 Y76.951 F12000.000
G1 F1800
G1 X84.196 Y75.139 E50.84132
G1 X86.216 Y73.605 E50.90521
G1 X88.391 Y72.323 E50.96881
G1 X90.712 Y71.301 E51.03270
G1 X92.482 Y70.727 E51.07955
G1 X94.282 Y70.311 E51.12610
G1 X96.124 Y70.048 E51.17295
G1 X97.981 Y69.945 E51.21979
G1 X201.761 Y69.943 E53.83385
G1 X203.711 Y70.032 E53.88301
G1 X205.645 Y70.297 E53.93217
G1 X207.535 Y70.732 E53.98104
G1 X209.390 Y71.339 E54.03019
G1 X211.183 Y72.111 E54.07935
G1 X212.888 Y73.035 E54.12822
G1 X214.513 Y74.116 E54.17737
G1 X216.034 Y75.339 E54.22653
G1 X217.431 Y76.685 E54.27540
G1 X218.708 Y78.161 E54.32456
G1 X219.847 Y79.746 E54.37371
G1 X220.833 Y81.416 E54.42258
G1 X221.665 Y83.169 E54.47145
G1 X222.340 Y85.000 E54.52061
G1 X222.847 Y86.885 E54.56976
G1 X223.182 Y88.807 E54.61892
G1 X223.356 Y91.384 E54.68396
G1 X223.341 Y109.277 E55.13465
G1 X223.221 Y110.868 E55.17485
G1 X222.982 Y112.457 E55.21533
G1 X222.628 Y114.014 E55.25553
G1 X222.157 Y115.550 E55.29602
G1 X221.254 Y117.748 E55.35586
G1 X220.115 Y119.833 E55.41571
G1 X218.761 Y121.772 E55.47527
G1 X217.196 Y123.559 E55.53511
G1 X215.443 Y125.164 E55.59496
G1 X213.526 Y126.566 E55.65481
G1 X211.465 Y127.749 E55.71465
G1 X209.288 Y128.699 E55.77450
G1 X207.507 Y129.276 E55.82163
G1 X205.695 Y129.694 E55.86848
G1 X203.854 Y129.954 E55.91532
G1 X201.985 Y130.056 E55.96246
G1 X98.227 Y130.057 E58.57594
G1 X96.163 Y129.956 E58.62798
G1 X94.672 Y129.759 E58.66587
G1 X93.198 Y129.458 E58.70375
G1 X91.749 Y129.056 E58.74164
G1 X90.321 Y128.549 E58.77981
G1 X88.942 Y127.949 E58.81770
G1 X87.598 Y127.248 E58.85587
G1 X86.306 Y126.456 E58.89405
G1 X85.082 Y125.581 E58.93193
G1 X83.923 Y124.623 E58.96982
G1 X82.824 Y123.579 E59.00799
G1 X81.809 Y122.469 E59.04588
G1 X80.867 Y121.282 E59.08405
G1 X80.016 Y120.042 E59.12194
G1 X79.248 Y118.735 E59.16011
G1 X78.579 Y117.388 E59.19799
G1 X78.001 Y115.988 E59.23617
G1 X77.437 Y114.251 E59.28215
G1 X77.019 Y112.463 E59.32841
G1 X76.756 Y110.656 E59.37439
G1 X76.647 Y108.834 E59.42037
G1 X76.656 Y90.792 E59.87482
G1 X76.905 Y88.199 E59.94044
G1 X77.466 Y85.643 E60.00635
G1 X78.297 Y83.259 E60.06995
G1 X79.406 Y80.978 E60.13384
G1 X80.768 Y78.852 E60.19744
G1 X82.289 Y76.997 E60.25785
G1 X82.704 Y77.339 F12000.000
G1 F1800
G1 X82.805 Y77.216 E60.26185
G1 X84.598 Y75.500 E60.32437
G1 X86.580 Y74.006 E60.38689
G1 X88.714 Y72.760 E60.44913
G1 X90.990 Y71.769 E60.51165
G1 X92.696 Y71.224 E60.55677
G1 X94.442 Y70.826 E60.60189
G1 X96.216 Y70.577 E60.64701
G1 X98.005 Y70.480 E60.69212
G1 X201.761 Y70.479 E63.30556
G1 X203.653 Y70.565 E63.35325
G1 X205.540 Y70.822 E63.40122
G1 X207.396 Y71.249 E63.44920
G1 X209.206 Y71.842 E63.49717
G1 X210.955 Y72.596 E63.54514
G1 X212.629 Y73.504 E63.59312
G1 X214.214 Y74.560 E63.64109
G1 X215.697 Y75.755 E63.68906
G1 X217.058 Y77.071 E63.73675
G1 X218.303 Y78.512 E63.78472
G1 X219.413 Y80.060 E63.83269
G1 X220.378 Y81.702 E63.88067
G1 X221.191 Y83.424 E63.92864
G1 X221.846 Y85.213 E63.97661
G1 X222.336 Y87.053 E64.02458
G1 X222.658 Y88.930 E64.07256
G1 X222.821 Y91.396 E64.13479
G1 X222.806 Y109.244 E64.58435
G1 X222.691 Y110.793 E64.62348
G1 X222.459 Y112.340 E64.66289
G1 X222.113 Y113.866 E64.70230
G1 X221.655 Y115.362 E64.74171
G1 X220.773 Y117.512 E64.80024
G1 X219.654 Y119.561 E64.85905
G1 X218.321 Y121.465 E64.91758
G1 X216.780 Y123.218 E64.97639
G1 X215.062 Y124.783 E65.03492
G1 X213.173 Y126.156 E65.09373
G1 X211.144 Y127.311 E65.15255
G1 X209.010 Y128.231 E65.21108
G1 X207.304 Y128.776 E65.25619
G1 X205.546 Y129.176 E65.30160
G1 X203.772 Y129.424 E65.34672
G1 X201.972 Y129.520 E65.39212
G1 X98.227 Y129.521 E68.00528
G1 X96.234 Y129.425 E68.05553
G1 X94.773 Y129.232 E68.09266
G1 X93.329 Y128.938 E68.12979
G1 X91.908 Y128.544 E68.16691
G1 X90.509 Y128.048 E68.20432
G1 X89.157 Y127.459 E68.24145
G1 X87.841 Y126.771 E68.27886
G1 X86.586 Y125.998 E68.31599
G1 X85.378 Y125.133 E68.35340
G1 X84.244 Y124.192 E68.39053
G1 X83.169 Y123.166 E68.42794
G1 X82.170 Y122.068 E68.46535
G1 X81.258 Y120.910 E68.50248
G1 X80.428 Y119.692 E68.53961
G1 X79.680 Y118.408 E68.57702
G1 X79.030 Y117.086 E68.61415
G1 X78.469 Y115.710 E68.65156
G1 X77.930 Y114.026 E68.69611
G1 X77.534 Y112.302 E68.74066
G1 X77.284 Y110.551 E68.78520
G1 X77.181 Y108.786 E68.82975
G1 X77.192 Y90.813 E69.28245
G1 X77.435 Y88.275 E69.34668
G1 X77.986 Y85.773 E69.41120
G1 X78.806 Y83.430 E69.47372
G1 X79.890 Y81.210 E69.53596
G1 X81.227 Y79.132 E69.59819
G1 X82.666 Y77.385 E69.65520
G1 X83.234 Y77.542 F12000.000
G1 F1800
G1 X84.993 Y75.867 E69.71636
G1 X86.936 Y74.412 E69.77751
G1 X89.038 Y73.196 E69.83867
G1 X91.269 Y72.238 E69.89983
G1 X92.913 Y71.720 E69.94324
G1 X94.594 Y71.342 E69.98666
G1 X96.302 Y71.107 E70.03007
G1 X98.023 Y71.016 E70.07349
G1 X201.761 Y71.014 E72.68647
G1 X203.617 Y71.099 E72.73326
G1 X205.458 Y71.352 E72.78006
G1 X207.268 Y71.770 E72.82685
G1 X209.033 Y72.349 E72.87365
G1 X210.738 Y73.086 E72.92045
G1 X212.370 Y73.974 E72.96724
G1 X213.915 Y75.006 E73.01404
G1 X215.361 Y76.173 E73.06083
G1 X216.695 Y77.466 E73.10763
G1 X217.907 Y78.874 E73.15442
G1 X218.986 Y80.386 E73.20122
G1 X219.924 Y81.990 E73.24801
G1 X220.714 Y83.671 E73.29481
G1 X221.349 Y85.417 E73.34160
G1 X221.823 Y87.214 E73.38840
G1 X222.132 Y89.045 E73.43519
G1 X222.285 Y91.413 E73.49494
G1 X222.272 Y109.211 E73.94326
G1 X222.159 Y110.729 E73.98160
G1 X221.936 Y112.224 E74.01966
G1 X221.601 Y113.709 E74.05800
G1 X221.157 Y115.165 E74.09634
G1 X220.292 Y117.277 E74.15384
G1 X219.192 Y119.290 E74.21162
G1 X217.881 Y121.159 E74.26912
G1 X216.371 Y122.871 E74.32662
G1 X214.680 Y124.404 E74.38411
G1 X212.829 Y125.741 E74.44161
G1 X210.842 Y126.863 E74.49911
G1 X208.731 Y127.762 E74.55689
G1 X207.087 Y128.280 E74.60030
G1 X205.395 Y128.660 E74.64400
G1 X203.676 Y128.895 E74.68769
G1 X201.955 Y128.985 E74.73111
G1 X98.239 Y128.986 E77.34353
G1 X96.305 Y128.893 E77.39229
G1 X94.873 Y128.706 E77.42866
G1 X93.447 Y128.416 E77.46531
G1 X92.056 Y128.029 E77.50168
G1 X90.685 Y127.541 E77.53834
G1 X89.362 Y126.963 E77.57471
G1 X88.083 Y126.292 E77.61108
G1 X86.845 Y125.528 E77.64773
G1 X85.674 Y124.684 E77.68410
G1 X84.564 Y123.760 E77.72047
G1 X83.514 Y122.753 E77.75712
G1 X82.538 Y121.673 E77.79377
G1 X81.648 Y120.536 E77.83014
G1 X80.834 Y119.330 E77.86679
G1 X80.112 Y118.080 E77.90316
G1 X79.480 Y116.781 E77.93953
G1 X78.938 Y115.431 E77.97618
G1 X78.426 Y113.809 E78.01903
G1 X78.048 Y112.139 E78.06217
G1 X77.812 Y110.454 E78.10502
G1 X77.717 Y108.755 E78.14787
